public/assets/twitter.svg

<svg width="35" height="29" viewBox="0 0 35 29" fill="none" xmlns="http://www.w3.org/2000/svg">
<path d="M31.4022 7.37122C31.4245 7.68212 31.4245 7.99309 31.4245 8.30398C31.4245 17.7868 24.2069 28.7132 11.0152 28.7132C6.95112 28.7132 3.17577 27.5361 0 25.4931C0.577432 25.5597 1.13258 25.5819 1.73223 25.5819C5.0856 25.5819 8.17257 24.4493 10.6377 22.5172C7.48412 22.4505 4.84135 20.3852 3.9308 17.5425C4.375 17.6091 4.81913 17.6536 5.28555 17.6536C5.92956 17.6536 6.57364 17.5647 7.17322 17.4093C3.88644 16.743 1.42126 13.856 1.42126 10.3693V10.2805C2.37617 10.8135 3.48667 11.1466 4.66361 11.191C2.7315 9.90291 1.46569 7.70434 1.46569 5.21701C1.46569 3.88455 1.82096 2.66311 2.44282 1.59711C5.97393 5.94989 11.2817 8.79248 17.2334 9.10345C17.1224 8.57045 17.0557 8.0153 17.0557 7.46009C17.0557 3.507 20.2537 0.286865 24.229 0.286865C26.2943 0.286865 28.1598 1.15298 29.4701 2.55209C31.0912 2.24119 32.6458 1.64154 34.0227 0.819863C33.4897 2.48551 32.3571 3.88462 30.8692 4.77288C32.3127 4.6175 33.7118 4.21767 34.9999 3.66252C34.0229 5.08378 32.8014 6.34959 31.4022 7.37122Z" fill="#0680D7"/>
</svg>

<svg width="35" height="29" fill="none" xmlns="http://www.w3.org/2000/svg"><path d="M31.402 7.371c.022.311.022.622.022.933 0 9.483-7.217 20.41-20.409 20.41-4.064 0-7.84-1.178-11.015-3.22.577.066 1.133.088 1.732.088 3.354 0 6.44-1.133 8.906-3.065a7.186 7.186 0 0 1-6.707-4.974c.444.066.888.11 1.355.11.644 0 1.288-.088 1.887-.244a7.174 7.174 0 0 1-5.752-7.04v-.088a7.225 7.225 0 0 0 3.243.91 7.168 7.168 0 0 1-3.198-5.974 7.12 7.12 0 0 1 .977-3.62 20.39 20.39 0 0 0 14.79 7.506 8.099 8.099 0 0 1-.177-1.643A7.17 7.17 0 0 1 24.229.287c2.065 0 3.93.866 5.241 2.265 1.621-.31 3.176-.91 4.553-1.732a7.154 7.154 0 0 1-3.154 3.953A14.381 14.381 0 0 0 35 3.663a15.418 15.418 0 0 1-3.597 3.708Z" fill="#0680D7"/></svg>
